storage/app/icons/phosphoricons/fill/hockey-fill.svg

<svg xmlns="http://www.w3.org/2000/svg" fill="currentColor" viewBox="0 0 256 256"><path d="m149.9 122.82 68-80a8 8 0 0 1 12.2 10.36l-68 80a8 8 0 1 1-12.2-10.36M240 168v32a16 16 0 0 1-16 16h-52.3a16 16 0 0 1-12.19-5.64L25.9 53.18a8 8 0 0 1 12.2-10.36L130.9 152H224a16 16 0 0 1 16 16m-16 0h-16v32h16Zm-108.7 15.06a4 4 0 0 1 0 5.18l-18.81 22.12A16 16 0 0 1 84.3 216H32a16 16 0 0 1-16-16v-32a16 16 0 0 1 16-16h55.05a4 4 0 0 1 3 1.41ZM48 168H32v32h16Z"/></svg>

<svg xmlns="http://www.w3.org/2000/svg" viewBox="0 0 256 256" fill="currentColor"><path d="M149.9,122.82l68-80a8,8,0,0,1,12.2,10.36l-68,80a8,8,0,1,1-12.2-10.36ZM240,168v32a16,16,0,0,1-16,16H171.7a16,16,0,0,1-12.19-5.64L25.9,53.18h0A8,8,0,0,1,38.1,42.82L130.9,152H224A16,16,0,0,1,240,168Zm-16,0H208v32h16ZM115.3,183.06a4,4,0,0,1,0,5.18L96.49,210.36A16,16,0,0,1,84.3,216H32a16,16,0,0,1-16-16V168a16,16,0,0,1,16-16H87.05a4,4,0,0,1,3,1.41ZM48,168H32v32H48Z"/></svg>
